assets/azureapiproxy/original.svg

<svg height="18" viewBox="0 0 18 18" width="18" xmlns="http://www.w3.org/2000/svg" xmlns:xlink="http://www.w3.org/1999/xlink"><linearGradient id="a" gradientTransform="matrix(1 0 0 -1 0 791.516)" gradientUnits="userSpaceOnUse" x1="8.924" x2="8.924" y1="785.145" y2="779.186"><stop offset="0" stop-color="#37c2b1"/><stop offset="1" stop-color="#258277"/></linearGradient><rect fill="url(#a)" height="4.788" rx="2.364" width="4.788" x="6.531" y="6.615"/><path d="m8 12.693a3.773 3.773 0 0 1 -.015-7.387.649.649 0 1 0 -.266-1.27 5.09 5.09 0 0 0 -3.989 4.323h-1.156a1.35 1.35 0 0 0 -1.187-.7h-.034a1.353 1.353 0 0 0 -1.353 1.348v.034a1.353 1.353 0 0 0 1.353 1.353h.034a1.35 1.35 0 0 0 1.2-.737h1.146a5.09 5.09 0 0 0 4.005 4.308.649.649 0 0 0 .262-1.272m8.647-5.039h-.034a1.35 1.35 0 0 0 -1.187.705h-1.156a5.09 5.09 0 0 0 -3.987-4.323.649.649 0 0 0 -.266 1.27 3.773 3.773 0 0 1 -.017 7.387.649.649 0 0 0 .26 1.272 5.09 5.09 0 0 0 4-4.308h1.15a1.35 1.35 0 0 0 1.2.737h.034a1.353 1.353 0 0 0 1.356-1.353v-.034a1.353 1.353 0 0 0 -1.353-1.353" fill="#3cd4c2"/>​</svg>

<svg xmlns="http://www.w3.org/2000/svg" width="18" height="18" viewBox="0 0 18 18"><defs><linearGradient id="ff7a1a9f-e1a7-471a-b76e-1d2ea43a8d11" x1="8.924" x2="8.924" y1="785.145" y2="779.186" gradientTransform="matrix(1 0 0 -1 0 791.516)" gradientUnits="userSpaceOnUse"><stop offset="0" stop-color="#37c2b1"/><stop offset="1" stop-color="#258277"/></linearGradient></defs><rect width="4.788" height="4.788" x="6.531" y="6.615" fill="url(#ff7a1a9f-e1a7-471a-b76e-1d2ea43a8d11)" rx="2.364"/><path fill="#3cd4c2" d="M8 12.693a3.773 3.773 0 0 1-.015-7.387.649.649 0 1 0-.266-1.27A5.09 5.09 0 0 0 3.73 8.359H2.574a1.35 1.35 0 0 0-1.187-.7h-.034A1.353 1.353 0 0 0 0 9.007v.034a1.353 1.353 0 0 0 1.353 1.353h.034a1.35 1.35 0 0 0 1.2-.737h1.146a5.09 5.09 0 0 0 4.005 4.308A.649.649 0 0 0 8 12.693M16.647 7.654h-.034a1.35 1.35 0 0 0-1.187.705H14.27a5.09 5.09 0 0 0-3.987-4.323.649.649 0 0 0-.266 1.27A3.773 3.773 0 0 1 10 12.693a.649.649 0 0 0 .26 1.272 5.09 5.09 0 0 0 4-4.308h1.15a1.35 1.35 0 0 0 1.2.737h.034A1.353 1.353 0 0 0 18 9.041v-.034a1.353 1.353 0 0 0-1.353-1.353"/>​</svg>
